apps/ui-icons/svgs/thumb_up.svg

<svg viewBox="0 0 24 24" width="24" height="24"  fill="none" xmlns="http://www.w3.org/2000/svg">
<path d="M17.4762 18.9998H11.1429C9.6438 18.9998 8.42857 17.8071 8.42857 16.3358V11.3151C8.42857 9.98115 8.96846 8.70188 9.92947 7.75867L15.5 3.5C15.5 3.5 16.0135 3.64356 16.6381 4.2566C16.7437 4.3602 16.8304 4.5008 16.8982 4.6784C16.9661 4.856 17 5.0262 17 5.18901V5.49981L15 9.23177H20.1905C20.673 9.23177 21.0952 9.40938 21.4571 9.76458C21.819 10.1198 22 10.5342 22 11.0078V12.7838C22 12.8874 21.9887 12.9984 21.9661 13.1168C21.9435 13.2352 21.9095 13.3462 21.8643 13.4498L19.15 17.9342C19.0143 18.2302 18.7881 18.4818 18.4714 18.689C18.1548 18.8962 17.823 18.9998 17.4762 18.9998ZM4.80952 9.23177C5.8089 9.23177 6.61905 10.0269 6.61905 11.0078V17.2238C6.61905 18.2047 5.8089 18.9998 4.80952 18.9998C3.81015 18.9998 3 18.2047 3 17.2238V11.0078C3 10.0269 3.81015 9.23177 4.80952 9.23177Z" fill="#171D26"/>
</svg>

<svg xmlns="http://www.w3.org/2000/svg" width="24" height="24" fill="none" viewBox="0 0 24 24">
  <path fill="#171D26" d="M17.476 19h-6.333c-1.5 0-2.714-1.193-2.714-2.664v-5.02c0-1.335.54-2.614 1.5-3.557L15.5 3.5s.514.144 1.138.757c.106.103.192.244.26.421.068.178.102.348.102.511v.31l-2 3.733h5.19c.483 0 .905.177 1.267.533.362.355.543.77.543 1.243v1.776a1.781 1.781 0 0 1-.136.666l-2.714 4.484a1.804 1.804 0 0 1-.679.755 1.79 1.79 0 0 1-.995.31ZM4.81 9.232c.999 0 1.809.795 1.809 1.776v6.216c0 .98-.81 1.776-1.81 1.776C3.81 19 3 18.205 3 17.224v-6.216c0-.981.81-1.776 1.81-1.776Z"/>
</svg>
